app/img/categories__armchair.svg

<svg width="100" height="78" viewBox="0 0 100 78" fill="none" xmlns="http://www.w3.org/2000/svg">
<path d="M75.8968 41.6612H24.1031C21.6154 41.6583 19.5994 39.6424 19.5967 37.1547V4.63069C19.5996 2.14302 21.6154 0.12697 24.1031 0.124268H75.8968C78.3844 0.127139 80.4005 2.14302 80.4032 4.63069V37.1547C80.4005 39.6424 78.3846 41.6585 75.8968 41.6612ZM24.1031 2.46802C22.9092 2.46937 21.9418 3.43694 21.9404 4.63069V37.1547C21.9418 38.3487 22.9094 39.3161 24.1031 39.3174H75.8968C77.0907 39.3161 78.0581 38.3485 78.0594 37.1547V4.63069C78.0581 3.43677 77.0905 2.46937 75.8968 2.46802H24.1031Z" fill="#1E2E36"/>
<path d="M75.8968 70.8929H24.1031C21.6154 70.89 19.5994 68.8741 19.5967 66.3864V43.8241C19.5996 41.3364 21.6154 39.3203 24.1031 39.3176H75.8968C78.3844 39.3205 80.4005 41.3364 80.4032 43.8241V66.3864C80.4005 68.8741 78.3846 70.89 75.8968 70.8929ZM24.1031 41.6612C22.9092 41.6626 21.9418 42.6301 21.9404 43.8239V66.3863C21.9418 67.5802 22.9094 68.5476 24.1031 68.5489H75.8968C77.0907 68.5476 78.0581 67.58 78.0594 66.3863V43.8241C78.0581 42.6301 77.0905 41.6627 75.8968 41.6614H24.1031V41.6612Z" fill="#1E2E36"/>
<path d="M95.4936 70.8928H82.5662C80.0785 70.8899 78.0625 68.874 78.0598 66.3864V26.8441C78.0626 24.3564 80.0785 22.3403 82.5662 22.3376H95.4936C97.9812 22.3405 99.9973 24.3564 100 26.8441V66.3862C99.9971 68.874 97.9812 70.8899 95.4936 70.8928ZM82.566 24.6814C81.3721 24.6828 80.4047 25.6503 80.4033 26.8441V66.3862C80.4047 67.5801 81.3723 68.5475 82.566 68.5489H95.4934C96.6873 68.5475 97.6547 67.5799 97.6561 66.3862V26.8441C97.6547 25.6502 96.6871 24.6828 95.4934 24.6814H82.566Z" fill="#1E2E36"/>
<path d="M17.434 70.8928H4.5066C2.01875 70.8899 0.00287163 68.874 0 66.3862V26.8441C0.00287163 24.3564 2.01875 22.3403 4.50643 22.3376H17.4338C19.9215 22.3405 21.9375 24.3564 21.9402 26.8441V66.3862C21.9375 68.874 19.9217 70.8899 17.434 70.8928ZM4.50643 24.6814C3.31251 24.6828 2.34511 25.6503 2.34375 26.8441V66.3862C2.34511 67.5801 3.31267 68.5475 4.50643 68.5489H17.4338C18.6277 68.5475 19.5951 67.5799 19.5965 66.3862V26.8441C19.5951 25.6502 18.6276 24.6828 17.4338 24.6814H4.50643Z" fill="#1E2E36"/>
<path d="M79.2314 56.2771H20.7685C20.1213 56.2771 19.5967 55.7524 19.5967 55.1053C19.5967 54.4582 20.1213 53.9333 20.7685 53.9333H79.2314C79.8785 53.9333 80.4034 54.458 80.4034 55.1053C80.4034 55.7526 79.8787 56.2771 79.2314 56.2771Z" fill="#1E2E36"/>
<path d="M10.9701 77.8759C9.02871 77.8782 7.33597 76.5558 6.86857 74.6715L5.70472 70.0042C5.54796 69.3764 5.93006 68.7404 6.55776 68.5836C6.65067 68.5605 6.74594 68.5487 6.84154 68.5488H15.0987C15.7458 68.5488 16.2704 69.0733 16.2704 69.7205C16.2704 69.8161 16.2588 69.9115 16.2357 70.0042L15.0716 74.6715C14.6042 76.556 12.9115 77.8782 10.9701 77.8759ZM8.34155 70.8928L9.14256 74.1044C9.39425 75.1137 10.4166 75.7279 11.4258 75.4762C12.1015 75.3076 12.6291 74.7801 12.7976 74.1044L13.5987 70.8928H8.34155Z" fill="#1E2E36"/>
<path d="M89.0298 77.876C87.0883 77.8783 85.3955 76.5559 84.9281 74.6716L83.7643 70.0045C83.6075 69.3766 83.9896 68.7406 84.6173 68.5839C84.7102 68.5607 84.8055 68.5489 84.9011 68.5491H93.1582C93.8053 68.5491 94.33 69.0736 94.33 69.7207C94.33 69.8163 94.3184 69.9118 94.2952 70.0045L93.1314 74.6716C92.664 76.5559 90.9712 77.8783 89.0298 77.876ZM86.4013 70.8928L87.2021 74.1043C87.4538 75.1136 88.4761 75.728 89.4854 75.4763C90.1613 75.3077 90.6888 74.7802 90.8574 74.1043L91.6582 70.8927L86.4013 70.8928Z" fill="#1E2E36"/>
</svg>

<svg width="100" height="78" fill="none" xmlns="http://www.w3.org/2000/svg"><path d="M75.897 41.661H24.103a4.512 4.512 0 01-4.506-4.506V4.63A4.511 4.511 0 0124.103.124h51.794a4.512 4.512 0 014.506 4.507v32.524a4.511 4.511 0 01-4.506 4.506zM24.103 2.468a2.165 2.165 0 00-2.163 2.163v32.524a2.165 2.165 0 002.163 2.162h51.794a2.165 2.165 0 002.162-2.162V4.63a2.165 2.165 0 00-2.162-2.163H24.103z" fill="#1E2E36"/><path d="M75.897 70.893H24.103a4.512 4.512 0 01-4.506-4.507V43.824a4.512 4.512 0 014.506-4.506h51.794a4.512 4.512 0 014.506 4.506v22.562a4.511 4.511 0 01-4.506 4.507zM24.103 41.66a2.165 2.165 0 00-2.163 2.163v22.562a2.165 2.165 0 002.163 2.163h51.794a2.165 2.165 0 002.162-2.163V43.824a2.165 2.165 0 00-2.162-2.163H24.103z" fill="#1E2E36"/><path d="M95.494 70.893H82.566a4.511 4.511 0 01-4.506-4.507V26.844a4.511 4.511 0 014.506-4.506h12.928A4.512 4.512 0 01100 26.844v39.542a4.512 4.512 0 01-4.506 4.507zM82.566 24.68a2.165 2.165 0 00-2.163 2.163v39.542a2.165 2.165 0 002.163 2.163h12.927a2.165 2.165 0 002.163-2.163V26.844a2.165 2.165 0 00-2.163-2.163H82.566zM17.434 70.893H4.507A4.512 4.512 0 010 66.386V26.844a4.512 4.512 0 014.506-4.506h12.928a4.512 4.512 0 014.506 4.506v39.542a4.511 4.511 0 01-4.506 4.507zM4.506 24.68a2.165 2.165 0 00-2.162 2.163v39.542a2.165 2.165 0 002.162 2.163h12.928a2.165 2.165 0 002.162-2.163V26.844a2.165 2.165 0 00-2.162-2.163H4.506z" fill="#1E2E36"/><path d="M79.231 56.277H20.77a1.172 1.172 0 010-2.344H79.23a1.172 1.172 0 010 2.344zM10.97 77.876A4.22 4.22 0 016.87 74.67l-1.164-4.667a1.172 1.172 0 011.137-1.455h8.257a1.172 1.172 0 011.137 1.455l-1.164 4.667a4.22 4.22 0 01-4.102 3.205zm-2.628-6.983l.8 3.211a1.884 1.884 0 003.656 0l.8-3.211H8.343zM89.03 77.876a4.22 4.22 0 01-4.102-3.204l-1.164-4.668a1.172 1.172 0 011.137-1.455h8.257a1.172 1.172 0 011.137 1.455l-1.164 4.668a4.22 4.22 0 01-4.101 3.204zM86.4 70.893l.801 3.211a1.884 1.884 0 003.655 0l.801-3.211h-5.257z" fill="#1E2E36"/></svg>
